X:4
T:ALYCRK2- Untitled tune (Maggie Lawder)
S:from 'Britons Strike Home', 1739
Q:1/4=120
L:1/4
M:C
K:A
G/|A3/4B/4A3/4A/4 A3/4B/4A3/4A/4|B3/4c/4B3/4A/4 G3/4A/4B3/4B/4|\
c3/4A/4A3/4A/4 A3/4B/4A3/4A/4|c3/4d/4e3/4d/4 c3/4d/4e3/4e/4|\
f3/4e/4d3/4c/4 d3/4c/4B3/4c/4|d3/4c/4B3/4A/4 G3/4A/4B3/4B/4|\
A3/4G/4F3/4E/4 D3/4C/4B,3/4d/4|c3/4d/4B3/4c/4AA|]

